X:1
T:The Hunt is Up
M:6/8
L:1/8
K:C
 G| c2 G E3/2- F/2 G| c2 G E3/2- F/2 G| A3/2- G/2 F E3/2- D/2 C| D3- D2 G|\
 AFG A2 G| F3/2- E/2 F G2 G| A3/2- B/2 c B3/2- c/2 d| c3- c2||
